X:1
T:Title
%%score { ( 1 3 ) | 2 }
L:1/8
Q:1/4=100
M:4/4
K:A
V:1 treble nm="Grand Piano"
V:3 treble 
V:2 bass 
V:1
 [CE]2 [CA]>[DB] [Ec]3 [EA] | F2 A2 [CE]4 | [CE]2 [CA]>[DB] [Ec]2 EE | [^Dc]2 [DB][DA] [EB]2 z2 | %4
w: Mrs.Kent~White * * * *||||
 [Ee]2 [Ec][Ec] [Ec]3 [EB] | [FA]2 F2 A2 z2 | [CE]2 AB c2 E2 | cc B2 [CA]4 | c4 A4 | %9
w: |||||
 EEFF [CE]2 z2 | [CE][CE][CA][DB] [Ec]2 E2 |[M:19/16] [^Dc]-<[Dc][DB]-<[DB]B/-B/-B-<Be3/2d | %12
w: |||
[M:4/4] c4 A4 | EEFF [CE]2 z2 | [CE][CE]AB c2 E2 | c2 B2 [CA]4 |] %16
w: ||||
V:2
 [A,,A,]2 [A,,A,]>[A,,A,] [A,,A,]3 [C,A,] | [D,D]2 [D,D]2 [A,,A,]4 | %2
 [A,,A,]2 [A,,A,]>[A,,A,] [A,,A,]2 [C,A,]2 | [B,,B,]2 [B,,B,]2 [E,G,]2 z2 | %4
 [A,,A,]2 [A,,A,][A,,A,] [A,,A,]3 [C,A,] | [D,D]2 [D,D]2 [D,D]2 z2 | %6
 [A,,A,]2 [C,A,C][D,A,D] [E,A,E]2 [E,A,]2 | [E,A,E][E,A,E] [E,G,D]2 [A,,A,]4 | %8
 [A,,A,][A,,A,] [A,,A,]>[A,,A,] [A,,A,]2 [A,,A,]2 | [C,A,C][C,G,C][D,A,D][D,A,D] [A,,A,]2 z2 | %10
 [A,,A,][A,,A,][C,A,][E,A,] [A,,A,]2 [C,A,]2 | %11
[M:19/16] [B,,B,]-<[B,,B,][B,,B,]-<[B,,B,][E,G,E]/-[E,G,E]/-[E,G,E]-<[E,G,E][G,B,E]3/2[G,B,E] | %12
[M:4/4] [A,,A,][A,,A,] [A,,A,]>[A,,A,] [A,,A,]2 [A,,A,][A,,A,] | %13
 [C,A,C][C,A,C][D,A,D][D,A,D] [A,,A,]2 z2 | [A,,A,][A,,A,][C,A,C][D,A,D] [E,A,E]2 [E,A,]2 | %15
 [E,A,E]2 [E,G,D]2 [A,,A,]4 |] %16
V:3
 x8 | x8 | x8 | x8 | x8 | x8 | x8 | x8 | EE E>E C2 C2 | x8 | x8 |[M:19/16] x19/2 | %12
[M:4/4] EE E>E C2 CC | x8 | x8 | x8 |] %16

